X:73
T:Dunphy's Hornpipe
N:Allan's   # 73  pg19
N:Trad/Anon
N:CONVERTED FROM NOTEWORTHY COMPOSER  (WWW.NOTEWORTHYSOFTWARE.COM) BY
N:ABC2NWC (HTTP://MEMBERS.AOL.COM/ABACUSMUSIC/), WITH
Z: (INTO NWC) VINCE BRENNAN 2002   (WWW.SOSYOURMOM.COM)
I:abc2nwc
M:4/4
L:1/8
K:G
((3DEF)|G3/2D/2B3/2D/2G2 ((3gag)|f3/2e/2e3/2d/2e3/2c/2A3/2G/2|
((3FAF)D3/2G/2 F3/2G/2A3/2c/2| ((3BAG)A3/2F/2 G3/2F/2E3/2D/2|
G3/2D/2B3/2D/2 G2 ((3gag)|f3/2e/2e3/2d/2 e3/2c/2A3/2G/2|
F3/2A/2d3/2B/2 c3/2A/2F3/2G/2| ((3ABA) G3/2F/2 G2:|
|:B3/2c/2| ((3ded) B3/2d/2 g3/2d/2B3/2d/2| ((3gfg) b3/2f/2 g3/2d/2B3/2d/2| ((3gag) f3/2g/2 e3/2d/2^c3/2d/2|
((3efe) d3/2^c/2 d2e3/2f/2| ((3gag) d3/2c/2  ((3BdB) G3/2c/2|e3/2c/2A3/2G/2
((3FAF) D3/2F/2|G3/2B/2d3/2B/2 c3/2A/2F3/2G/2| ((3ABA) G3/2F/2 G2:|
